; generated by PrusaSlicer 2.1.1+ on 2020-02-11 at 00:53:33 UTC

; 

; external perimeters extrusion width = 0.60mm
; perimeters extrusion width = 0.50mm
; infill extrusion width = 0.50mm
; solid infill extrusion width = 0.50mm
; top infill extrusion width = 0.45mm
; first layer extrusion width = 0.42mm

M73 P0 R126
M73 Q0 S126
M201 X1000 Y1000 Z1000 E5000 ; sets maximum accelerations, mm/sec^2
M203 X200 Y200 Z12 E120 ; sets maximum feedrates, mm/sec
M204 P1250 R1250 T1250 ; sets acceleration (P, T) and retract acceleration (R), mm/sec^2
M205 X8.00 Y8.00 Z0.40 E4.50 ; sets the jerk limits, mm/sec
M205 S0 T0 ; sets the minimum extruding and travel feed rate, mm/sec
M107
M862.3 P "MK3S" ; printer model check
M862.1 P0.4 ; nozzle diameter check
M115 U3.8.1 ; tell printer latest fw version
G90 ; use absolute coordinates
M83 ; extruder relative mode
M104 S215 ; set extruder temp
M140 S60 ; set bed temp
M190 S60 ; wait for bed temp
M109 S215 ; wait for extruder temp
G28 W ; home all without mesh bed level
G80 ; mesh bed leveling
G1 Y-3.0 F1000.0 ; go outside print area
G92 E0.0
G1 X60.0 E9.0 F1000.0 ; intro line
M73 Q0 S126
M73 P0 R125
G1 X100.0 E12.5 F1000.0 ; intro line
G92 E0.0
M221 S95
G21 ; set units to millimeters
G90 ; use absolute coordinates
M83 ; use relative distances for extrusion
M900 K30 ; Filament gcode
;BEFORE_LAYER_CHANGE
G92 E0.0
;0.2


G1 E-0.80000 F2100.00000
G1 Z0.600 F10800.000
;AFTER_LAYER_CHANGE
;0.2
G1 X108.801 Y89.600
G1 Z0.200
G1 E0.80000 F2100.00000
M204 S1000
G1 F1200
G1 X110.754 Y87.772 E0.08387
G1 X113.023 Y86.124 E0.08791
G1 X115.476 Y84.775 E0.08780
G1 X117.963 Y83.785 E0.08390
G1 X120.935 Y83.021 E0.09624
G1 X123.598 Y82.689 E0.08413
G1 X126.270 Y82.685 E0.08379
G1 X129.315 Y83.069 E0.09624
G1 X131.913 Y83.740 E0.08413
G1 X134.513 Y84.770 E0.08768
G1 X137.092 Y86.202 E0.09250
G1 X139.254 Y87.778 E0.08387
G1 X141.297 Y89.698 E0.08791
G1 X143.082 Y91.855 E0.08780
G1 X144.520 Y94.112 E0.08390
G1 X145.787 Y96.775 E0.09247
G1 X146.651 Y99.435 E0.08768
G1 X147.159 Y102.070 E0.08413
G1 X147.351 Y105.129 E0.09612
G1 X147.179 Y107.803 E0.08402
G1 X146.680 Y110.440 E0.08413
G1 X145.731 Y113.356 E0.09615
G1 X144.588 Y115.774 E0.08387
G1 X143.085 Y118.141 E0.08791
G1 X141.300 Y120.299 E0.08780
G1 X139.348 Y122.139 E0.08413
G1 X136.867 Y123.941 E0.09612
G1 X134.514 Y125.230 E0.08413
G1 X131.914 Y126.259 E0.08768
G1 X129.053 Y126.981 E0.09250
G1 X126.399 Y127.311 E0.08387
G1 X123.602 Y127.311 E0.08768
G1 X120.677 Y126.929 E0.09250
G1 X118.087 Y126.260 E0.08387
G1 X115.480 Y125.227 E0.08791
G1 X113.026 Y123.878 E0.08780
G1 X110.859 Y122.309 E0.08390
G1 X108.700 Y120.300 E0.09247
G1 X106.918 Y118.145 E0.08768
G1 X105.480 Y115.888 E0.08390
G1 X104.211 Y113.221 E0.09259
G1 X103.349 Y110.565 E0.08757
G1 X102.841 Y107.930 E0.08413
G1 X102.649 Y104.871 E0.09612
G1 X102.821 Y102.197 E0.08402
G1 X103.318 Y99.567 E0.08390
G1 X104.219 Y96.759 E0.09247
G1 X105.409 Y94.232 E0.08757
G1 X106.841 Y91.967 E0.08402
G1 X108.763 Y89.646 E0.09450
G1 F8640
G1 X110.754 Y87.772 E-0.63141
G1 X111.205 Y87.445 E-0.12859
G1 E-0.04000 F2100.00000
G1 Z0.800 F10800.000
G1 X117.790 Y98.230
G1 Z0.200
G1 E0.80000 F2100.00000
G1 F1200
G1 X118.696 Y97.380 E0.03894
G1 X119.701 Y96.650 E0.03894
G1 X120.789 Y96.051 E0.03894
G1 X121.944 Y95.594 E0.03894
G1 X123.147 Y95.285 E0.03894
G1 X124.379 Y95.129 E0.03894
G1 X125.621 Y95.129 E0.03894
G1 X126.853 Y95.285 E0.03894
G1 X128.056 Y95.594 E0.03894
G1 X129.211 Y96.051 E0.03894
G1 X130.299 Y96.650 E0.03894
G1 X131.304 Y97.380 E0.03894
G1 X132.210 Y98.230 E0.03894
G1 X133.001 Y99.187 E0.03894
G1 X133.667 Y100.235 E0.03894
G1 X134.196 Y101.359 E0.03894
G1 X134.579 Y102.540 E0.03894
G1 X134.812 Y103.760 E0.03894
G1 X134.890 Y105.000 E0.03894
G1 X134.812 Y106.240 E0.03894
G1 X134.579 Y107.460 E0.03894
G1 X134.196 Y108.641 E0.03894
G1 X133.667 Y109.765 E0.03894
G1 X133.001 Y110.813 E0.03894
G1 X132.210 Y111.770 E0.03894
G1 X131.304 Y112.620 E0.03894
G1 X130.299 Y113.350 E0.03894
G1 X129.211 Y113.949 E0.03894
G1 X128.056 Y114.406 E0.03894
G1 X126.853 Y114.715 E0.03894
G1 X125.621 Y114.871 E0.03894
G1 X124.379 Y114.871 E0.03894
G1 X123.147 Y114.715 E0.03894
G1 X121.944 Y114.406 E0.03894
G1 X120.789 Y113.949 E0.03894
G1 X119.701 Y113.350 E0.03894
G1 X118.696 Y112.620 E0.03894
G1 X117.790 Y111.770 E0.03894
G1 X116.999 Y110.813 E0.03894
G1 X116.333 Y109.765 E0.03894
G1 X115.804 Y108.641 E0.03894
G1 X115.421 Y107.460 E0.03894
G1 X115.188 Y106.240 E0.03894
G1 X115.110 Y105.000 E0.03894
G1 X115.188 Y103.760 E0.03894
G1 X115.421 Y102.540 E0.03894
G1 X115.804 Y101.359 E0.03894
G1 X116.333 Y100.235 E0.03894
G1 X116.999 Y99.187 E0.03894
G1 X117.752 Y98.276 E0.03706
G1 X118.043 Y98.516 F10800.000
G1 F1200
G1 X118.937 Y97.671 E0.03858
G1 X119.903 Y96.969 E0.03745
G1 X120.950 Y96.393 E0.03745
G1 X122.061 Y95.953 E0.03745
G1 X123.218 Y95.656 E0.03745
G1 X124.403 Y95.507 E0.03745
G1 X125.597 Y95.507 E0.03745
G1 X126.782 Y95.656 E0.03745
G1 X127.939 Y95.953 E0.03745
G1 X129.050 Y96.393 E0.03745
G1 X130.097 Y96.969 E0.03745
G1 X131.063 Y97.671 E0.03745
G1 X131.934 Y98.488 E0.03745
G1 X132.696 Y99.409 E0.03745
G1 X133.336 Y100.417 E0.03745
G1 X133.844 Y101.498 E0.03745
G1 X134.213 Y102.634 E0.03745
G1 X134.437 Y103.808 E0.03745
G1 X134.512 Y105.000 E0.03745
G1 X134.437 Y106.192 E0.03745
G1 X134.213 Y107.366 E0.03745
G1 X133.844 Y108.502 E0.03745
G1 X133.336 Y109.583 E0.03745
G1 X132.696 Y110.591 E0.03745
G1 X131.934 Y111.512 E0.03745
G1 X131.063 Y112.329 E0.03745
G1 X130.097 Y113.031 E0.03745
G1 X129.050 Y113.607 E0.03745
G1 X127.939 Y114.047 E0.03745
G1 X126.782 Y114.344 E0.03745
G1 X125.597 Y114.493 E0.03745
G1 X124.403 Y114.493 E0.03745
G1 X123.218 Y114.344 E0.03745
G1 X122.061 Y114.047 E0.03745
G1 X120.950 Y113.607 E0.03745
G1 X119.903 Y113.031 E0.03745
G1 X118.937 Y112.329 E0.03745
G1 X118.066 Y111.512 E0.03745
G1 X117.304 Y110.591 E0.03745
G1 X116.664 Y109.583 E0.03745
G1 X116.156 Y108.502 E0.03745
G1 X115.787 Y107.366 E0.03745
G1 X115.563 Y106.192 E0.03745
G1 X115.488 Y105.000 E0.03745
G1 X115.563 Y103.808 E0.03745
G1 X115.787 Y102.634 E0.03745
G1 X116.156 Y101.498 E0.03745
G1 X116.664 Y100.417 E0.03745
G1 X117.304 Y99.409 E0.03745
G1 X118.005 Y98.563 E0.03444
G1 X117.926 Y98.134 F10800.000
G1 F8640
G1 X118.937 Y97.671 E-0.29789
G1 X119.903 Y96.969 E-0.27583
G1 X120.610 Y96.580 E-0.18628
G1 E-0.04000 F2100.00000
G1 Z0.800 F10800.000
G1 X111.160 Y92.004
G1 Z0.200
G1 E0.80000 F2100.00000
G1 F1200
G1 X112.898 Y90.371 E0.07476
G1 X114.827 Y88.970 E0.07476
G1 X116.916 Y87.821 E0.07476
G1 X119.133 Y86.944 E0.07476
G1 X121.442 Y86.351 E0.07476
G1 X123.808 Y86.052 E0.07476
G1 X126.192 Y86.052 E0.07476
G1 X128.558 Y86.351 E0.07476
G1 X130.867 Y86.944 E0.07476
G1 X133.084 Y87.821 E0.07476
G1 X135.173 Y88.970 E0.07476
G1 X137.102 Y90.371 E0.07476
G1 X138.840 Y92.004 E0.07476
G1 X140.360 Y93.841 E0.07476
G1 X141.637 Y95.854 E0.07476
G1 X142.652 Y98.011 E0.07476
G1 X143.389 Y100.279 E0.07476
G1 X143.836 Y102.620 E0.07476
G1 X143.907 Y103.749 E0.03547
G1 X143.986 Y105.000 E0.03929
G1 X143.836 Y107.380 E0.07476
G1 X143.389 Y109.722 E0.07476
G1 X142.652 Y111.989 E0.07476
G1 X141.637 Y114.146 E0.07476
G1 X140.360 Y116.159 E0.07476
G1 X138.840 Y117.996 E0.07476
G1 X137.102 Y119.629 E0.07476
G1 X135.173 Y121.030 E0.07476
G1 X133.084 Y122.179 E0.07476
G1 X130.867 Y123.056 E0.07476
G1 X128.558 Y123.649 E0.07476
G1 X126.192 Y123.948 E0.07476
G1 X123.808 Y123.948 E0.07476
G1 X121.442 Y123.649 E0.07476
G1 X119.133 Y123.056 E0.07476
G1 X116.916 Y122.179 E0.07476
G1 X114.827 Y121.030 E0.07476
G1 X112.898 Y119.629 E0.07476
G1 X111.160 Y117.996 E0.07476
G1 X109.640 Y116.159 E0.07476
G1 X108.363 Y114.146 E0.07476
G1 X107.348 Y111.989 E0.07476
G1 X106.611 Y109.722 E0.07476
G1 X106.164 Y107.380 E0.07476
G1 X106.014 Y105.000 E0.07476
G1 X106.164 Y102.620 E0.07476
G1 X106.611 Y100.278 E0.07476
G1 X107.348 Y98.011 E0.07476
G1 X108.363 Y95.854 E0.07476
G1 X109.640 Y93.841 E0.07476
G1 X111.122 Y92.050 E0.07287
G1 X110.831 Y91.809 F10800.000
G1 F1200
G1 X112.657 Y90.080 E0.07885
G1 X114.625 Y88.651 E0.07624
G1 X116.755 Y87.480 E0.07624
G1 X119.016 Y86.584 E0.07624
G1 X121.372 Y85.980 E0.07624
G1 X123.784 Y85.675 E0.07624
G1 X126.216 Y85.675 E0.07624
G1 X127.362 Y85.820 E0.03621
G1 X128.628 Y85.980 E0.04003
G1 X130.984 Y86.584 E0.07624
G1 X133.245 Y87.480 E0.07624
G1 X135.375 Y88.651 E0.07624
G1 X137.343 Y90.080 E0.07624
G1 X139.115 Y91.745 E0.07624
G1 X140.665 Y93.619 E0.07624
G1 X141.968 Y95.672 E0.07624
G1 X143.004 Y97.872 E0.07624
G1 X143.755 Y100.185 E0.07624
G1 X144.211 Y102.573 E0.07624
G1 X144.283 Y103.726 E0.03621
G1 X144.363 Y105.000 E0.04003
G1 X144.211 Y107.427 E0.07624
G1 X143.755 Y109.815 E0.07624
G1 X143.004 Y112.128 E0.07624
G1 X141.968 Y114.328 E0.07624
G1 X140.665 Y116.381 E0.07624
G1 X139.115 Y118.255 E0.07624
G1 X137.343 Y119.920 E0.07624
G1 X135.375 Y121.349 E0.07624
G1 X133.245 Y122.520 E0.07624
G1 X130.984 Y123.416 E0.07624
G1 X128.628 Y124.020 E0.07624
G1 X126.216 Y124.325 E0.07624
G1 X123.784 Y124.325 E0.07624
G1 X121.372 Y124.020 E0.07624
G1 X119.016 Y123.416 E0.07624
G1 X116.755 Y122.520 E0.07624
G1 X114.625 Y121.349 E0.07624
G1 X112.657 Y119.920 E0.07624
G1 X110.885 Y118.255 E0.07624
G1 X109.335 Y116.381 E0.07624
G1 X108.032 Y114.328 E0.07624
G1 X106.996 Y112.128 E0.07624
G1 X106.245 Y109.815 E0.07624
G1 X105.789 Y107.427 E0.07624
G1 X105.637 Y105.000 E0.07624
G1 X105.789 Y102.573 E0.07624
G1 X106.245 Y100.185 E0.07624
G1 X106.996 Y97.872 E0.07624
G1 X108.032 Y95.672 E0.07624
G1 X109.335 Y93.619 E0.07624
G1 X110.793 Y91.856 E0.07174
G1 X111.221 Y91.900 F10800.000
G1 F8640
G1 X112.657 Y90.080 E-0.59442
G1 X113.238 Y89.659 E-0.16558
G1 E-0.04000 F2100.00000
G1 Z0.800 F10800.000
G1 X121.317 Y101.541
G1 Z0.200
G1 E0.80000 F2100.00000
G1 F1200
G1 X121.779 Y101.107 E0.01990
G1 X122.292 Y100.734 E0.01990
G1 X122.849 Y100.428 E0.01990
G1 X123.439 Y100.194 E0.01990
G1 X124.053 Y100.036 E0.01990
G1 X124.683 Y99.957 E0.01990
G1 X125.317 Y99.957 E0.01990
G1 X125.947 Y100.036 E0.01990
G1 X126.561 Y100.194 E0.01990
G1 X127.151 Y100.428 E0.01990
G1 X127.708 Y100.734 E0.01990
G1 X128.221 Y101.107 E0.01990
G1 X128.683 Y101.541 E0.01990
G1 X129.088 Y102.030 E0.01990
G1 X129.428 Y102.566 E0.01990
G1 X129.698 Y103.140 E0.01990
G1 X129.894 Y103.743 E0.01990
G1 X130.013 Y104.367 E0.01990
G1 X130.053 Y105.000 E0.01990
G1 X130.013 Y105.633 E0.01990
G1 X129.894 Y106.257 E0.01990
G1 X129.698 Y106.860 E0.01990
G1 X129.428 Y107.434 E0.01990
G1 X129.088 Y107.970 E0.01990
G1 X128.683 Y108.459 E0.01990
G1 X128.221 Y108.893 E0.01990
G1 X127.708 Y109.266 E0.01990
G1 X127.151 Y109.572 E0.01990
G1 X126.561 Y109.806 E0.01990
G1 X125.947 Y109.964 E0.01990
G1 X125.317 Y110.043 E0.01990
G1 X124.683 Y110.043 E0.01990
G1 X124.053 Y109.964 E0.01990
G1 X123.439 Y109.806 E0.01990
G1 X122.849 Y109.572 E0.01990
G1 X122.292 Y109.266 E0.01990
G1 X121.779 Y108.893 E0.01990
G1 X121.317 Y108.459 E0.01990
G1 X120.912 Y107.970 E0.01990
G1 X120.572 Y107.434 E0.01990
G1 X120.302 Y106.860 E0.01990
G1 X120.106 Y106.257 E0.01990
G1 X119.987 Y105.633 E0.01990
G1 X119.947 Y105.000 E0.01990
G1 X119.987 Y104.367 E0.01990
G1 X120.106 Y103.743 E0.01990
G1 X120.302 Y103.140 E0.01990
G1 X120.572 Y102.566 E0.01990
G1 X120.912 Y102.030 E0.01990
G1 X121.278 Y101.587 E0.01801
G1 X120.988 Y101.347 F10800.000
G1 F1200
G1 X121.538 Y100.815 E0.02399
G1 X122.090 Y100.415 E0.02138
G1 X122.688 Y100.086 E0.02138
G1 X123.322 Y99.835 E0.02138
G1 X123.982 Y99.665 E0.02138
G1 X124.659 Y99.580 E0.02138
G1 X125.341 Y99.580 E0.02138
G1 X126.018 Y99.665 E0.02138
G1 X126.678 Y99.835 E0.02138
G1 X127.312 Y100.086 E0.02138
G1 X127.910 Y100.415 E0.02138
G1 X128.462 Y100.815 E0.02138
G1 X128.959 Y101.282 E0.02138
G1 X129.394 Y101.808 E0.02138
G1 X129.759 Y102.384 E0.02138
G1 X130.049 Y103.001 E0.02138
G1 X130.260 Y103.649 E0.02138
G1 X130.388 Y104.319 E0.02138
G1 X130.431 Y105.000 E0.02138
G1 X130.388 Y105.681 E0.02138
G1 X130.260 Y106.351 E0.02138
G1 X130.049 Y106.999 E0.02138
G1 X129.759 Y107.616 E0.02138
G1 X129.394 Y108.192 E0.02138
G1 X128.959 Y108.718 E0.02138
G1 X128.462 Y109.185 E0.02138
G1 X127.910 Y109.585 E0.02138
G1 X127.312 Y109.914 E0.02138
G1 X126.678 Y110.165 E0.02138
G1 X126.018 Y110.335 E0.02138
G1 X125.341 Y110.420 E0.02138
G1 X124.659 Y110.420 E0.02138
G1 X123.982 Y110.335 E0.02138
G1 X123.322 Y110.165 E0.02138
G1 X122.688 Y109.914 E0.02138
G1 X122.090 Y109.585 E0.02138
G1 X121.538 Y109.185 E0.02138
G1 X121.041 Y108.718 E0.02138
G1 X120.606 Y108.192 E0.02138
G1 X120.241 Y107.616 E0.02138
G1 X119.951 Y106.999 E0.02138
G1 X119.740 Y106.351 E0.02138
G1 X119.612 Y105.681 E0.02138
G1 X119.569 Y105.000 E0.02138
G1 X119.612 Y104.319 E0.02138
G1 X119.740 Y103.649 E0.02138
G1 X119.951 Y103.001 E0.02138
G1 X120.241 Y102.384 E0.02138
G1 X120.606 Y101.808 E0.02138
G1 X120.949 Y101.393 E0.01688
G1 X121.378 Y101.434 F10800.000
G1 F8640
G1 X121.538 Y100.815 E-0.19045
G1 X122.090 Y100.415 E-0.15748
G1 X122.688 Y100.086 E-0.15748
G1 X123.322 Y99.835 E-0.15748
G1 X123.729 Y99.730 E-0.09712
G1 E-0.04000 F2100.00000
G1 Z0.800 F10800.000
G1 X120.725 Y107.465
G1 Z0.200
G1 E0.80000 F2100.00000
G1 F1200
G1 X122.526 Y109.266 E0.08075
G1 F8640
G1 X120.725 Y107.465 E-0.58816
G1 E-0.21184 F2100.00000
G1 Z0.800 F10800.000
G1 X123.506 Y109.706
G1 Z0.200
G1 E0.80000 F2100.00000
G1 F1200
G1 X120.574 Y106.774 E0.13144
G1 X120.380 Y106.186 E0.01963
G1 X120.346 Y106.007 E0.00577
G1 X123.996 Y109.657 E0.16361
G1 X124.629 Y109.751 E0.02031
G1 X120.254 Y105.376 E0.19615
G1 X120.230 Y105.000 E0.01194
G1 X120.241 Y104.824 E0.00558
G1 X125.177 Y109.760 E0.22128
G1 X125.670 Y109.713 E0.01568
G1 X120.282 Y104.326 E0.24152
G1 X120.369 Y103.873 E0.01461
G1 X126.122 Y109.627 E0.25792
G1 X126.543 Y109.509 E0.01387
G1 X120.495 Y103.460 E0.27115
G1 X120.565 Y103.244 E0.00721
G1 X120.646 Y103.072 E0.00602
G1 X126.930 Y109.356 E0.28169
G1 X127.288 Y109.175 E0.01272
G1 X120.819 Y102.706 E0.29000
G1 X121.028 Y102.376 E0.01239
G1 X127.627 Y108.975 E0.29587
G1 X127.940 Y108.748 E0.01224
G1 X121.253 Y102.062 E0.29977
G1 X121.497 Y101.767 E0.01214
G1 X128.229 Y108.498 E0.30179
G1 X128.503 Y108.234 E0.01209
G1 X121.771 Y101.502 E0.30179
G1 X122.060 Y101.252 E0.01212
G1 X128.747 Y107.938 E0.29977
G1 X128.972 Y107.625 E0.01225
G1 X122.373 Y101.025 E0.29587
G1 X122.712 Y100.825 E0.01249
G1 X129.181 Y107.294 E0.29001
G1 X129.354 Y106.928 E0.01284
G1 X123.070 Y100.644 E0.28169
G1 X123.457 Y100.491 E0.01317
G1 X129.505 Y106.540 E0.27115
G1 X129.631 Y106.127 E0.01369
G1 X123.878 Y100.373 E0.25792
G1 X124.106 Y100.315 E0.00747
G1 X124.330 Y100.287 E0.00715
G1 X129.718 Y105.674 E0.24152
G1 X129.759 Y105.176 E0.01584
G1 X124.823 Y100.240 E0.22129
G1 X125.371 Y100.249 E0.01738
G1 X129.746 Y104.624 E0.19615
G1 X129.732 Y104.402 E0.00705
G1 X129.654 Y103.993 E0.01321
G1 X126.004 Y100.343 E0.16362
G1 X126.474 Y100.464 E0.01537
G1 X126.789 Y100.588 E0.01073
G1 X129.694 Y103.494 E0.13027
G1 F8640
G1 X127.367 Y101.167 E-0.76000
G1 E-0.04000 F2100.00000
G1 Z0.800 F10800.000
G1 X129.275 Y102.535
G1 Z0.200
G1 E0.80000 F2100.00000
G1 F1200
G1 X127.473 Y100.734 E0.08077
G1 F8640
G1 X129.275 Y102.535 E-0.58831
G1 E-0.21169 F2100.00000
G1 Z0.800 F10800.000
G1 X133.604 Y88.237
G1 Z0.200
G1 E0.80000 F2100.00000
G1 F1200
G1 X141.771 Y96.403 E0.36264
G1 F8640
G1 X139.443 Y94.076 E-0.76000
G1 E-0.04000 F2100.00000
G1 Z0.800 F10800.000
G1 X142.245 Y97.412
G1 Z0.200
G1 E0.80000 F2100.00000
G1 F1200
G1 X132.877 Y88.044 E0.41600
G1 X131.993 Y87.694 E0.02986
G1 X142.366 Y98.066 E0.46061
G1 X142.633 Y98.868 E0.02654
G1 X131.109 Y87.344 E0.51175
G1 X130.779 Y87.213 E0.01114
G1 X130.329 Y87.098 E0.01460
G1 X142.890 Y99.659 E0.55782
G1 X143.131 Y100.433 E0.02546
G1 X129.610 Y86.913 E0.60040
G1 X128.892 Y86.729 E0.02329
G1 X143.257 Y101.093 E0.63789
G1 X143.382 Y101.753 E0.02110
G1 X128.223 Y86.594 E0.67320
G1 X127.611 Y86.516 E0.01935
G1 X143.508 Y102.413 E0.70593
G1 X143.555 Y102.656 E0.00776
G1 X143.577 Y103.016 E0.01133
G1 X127.000 Y86.439 E0.73614
G1 X126.389 Y86.362 E0.01935
G1 X143.613 Y103.586 E0.76488
G1 X143.649 Y104.156 E0.01793
