; generated by PrusaSlicer 2.1.1+ on 2020-02-11 at 15:28:39 UTC

; 

; external perimeters extrusion width = 0.60mm
; perimeters extrusion width = 0.50mm
; infill extrusion width = 0.50mm
; solid infill extrusion width = 0.50mm
; top infill extrusion width = 0.45mm
; first layer extrusion width = 0.42mm

M73 P0 R48
M73 Q0 S48
M201 X1000 Y1000 Z1000 E5000 ; sets maximum accelerations, mm/sec^2
M203 X200 Y200 Z12 E120 ; sets maximum feedrates, mm/sec
M204 P1250 R1250 T1250 ; sets acceleration (P, T) and retract acceleration (R), mm/sec^2
M205 X8.00 Y8.00 Z0.40 E4.50 ; sets the jerk limits, mm/sec
M205 S0 T0 ; sets the minimum extruding and travel feed rate, mm/sec
M107
M862.3 P "MK3S" ; printer model check
M862.1 P0.4 ; nozzle diameter check
M115 U3.8.1 ; tell printer latest fw version
G90 ; use absolute coordinates
M83 ; extruder relative mode
M104 S215 ; set extruder temp
M140 S60 ; set bed temp
M190 S60 ; wait for bed temp
M109 S215 ; wait for extruder temp
G28 W ; home all without mesh bed level
G80 ; mesh bed leveling
G1 Y-3.0 F1000.0 ; go outside print area
G92 E0.0
G1 X60.0 E9.0 F1000.0 ; intro line
M73 Q0 S48
M73 P0 R48
G1 X100.0 E12.5 F1000.0 ; intro line
G92 E0.0
M221 S95
G21 ; set units to millimeters
G90 ; use absolute coordinates
M83 ; use relative distances for extrusion
M900 K30 ; Filament gcode
;BEFORE_LAYER_CHANGE
G92 E0.0
;0.2


G1 E-0.80000 F2100.00000
G1 Z0.600 F10800.000
;AFTER_LAYER_CHANGE
;0.2
G1 X114.202 Y94.689
G1 Z0.200
G1 E0.80000 F2100.00000
M204 S1000
G1 F1200
G1 X115.489 Y93.482 E0.05530
G1 X116.997 Y92.387 E0.05844
G1 X118.630 Y91.489 E0.05844
G1 X120.232 Y90.848 E0.05410
G1 X122.335 Y90.305 E0.06808
G1 X124.059 Y90.092 E0.05448
G1 X125.781 Y90.087 E0.05398
G1 X127.939 Y90.358 E0.06820
G1 X129.624 Y90.797 E0.05460
G1 X131.347 Y91.478 E0.05807
G1 X133.137 Y92.479 E0.06431
G1 X134.531 Y93.499 E0.05417
G1 X135.890 Y94.775 E0.05844
G1 X137.078 Y96.211 E0.05844
G1 X138.008 Y97.665 E0.05410
G1 X138.893 Y99.513 E0.06425
G1 X139.465 Y101.275 E0.05807
G1 X139.797 Y102.984 E0.05460
G1 X139.933 Y105.147 E0.06796
G1 X139.819 Y106.873 E0.05423
G1 X139.498 Y108.585 E0.05460
G1 X138.824 Y110.647 E0.06802
G1 X138.085 Y112.204 E0.05405
G1 X137.084 Y113.781 E0.05857
G1 X135.896 Y115.217 E0.05844
G1 X134.634 Y116.411 E0.05448
G1 X132.877 Y117.687 E0.06808
G1 X131.352 Y118.519 E0.05448
G1 X129.630 Y119.202 E0.05807
G1 X127.640 Y119.698 E0.06431
G1 X125.929 Y119.908 E0.05405
G1 X124.077 Y119.909 E0.05807
G1 X122.044 Y119.638 E0.06431
G1 X120.376 Y119.203 E0.05405
G1 X118.639 Y118.515 E0.05857
G1 X117.005 Y117.618 E0.05844
G1 X115.606 Y116.608 E0.05410
G1 X114.102 Y115.216 E0.06425
G1 X112.922 Y113.789 E0.05807
G1 X111.990 Y112.331 E0.05423
G1 X111.105 Y110.483 E0.06425
G1 X110.534 Y108.721 E0.05807
G1 X110.203 Y107.016 E0.05448
G1 X110.067 Y104.853 E0.06796
G1 X110.181 Y103.127 E0.05423
G1 X110.499 Y101.431 E0.05410
G1 X111.121 Y99.478 E0.06425
G1 X111.907 Y97.810 E0.05782
G1 X112.836 Y96.337 E0.05460
G1 X114.164 Y94.735 E0.06524
G1 X114.452 Y94.974 F10800.000
G1 F1200
G1 X115.726 Y93.776 E0.05483
G1 X117.199 Y92.706 E0.05710
G1 X118.792 Y91.830 E0.05699
G1 X120.371 Y91.199 E0.05332
G1 X122.388 Y90.679 E0.06532
G1 X124.083 Y90.469 E0.05355
G1 X125.780 Y90.464 E0.05321
G1 X127.851 Y90.725 E0.06543
G1 X129.508 Y91.155 E0.05367
G1 X131.191 Y91.821 E0.05676
G1 X132.915 Y92.784 E0.06192
G1 X134.288 Y93.787 E0.05329
G1 X135.612 Y95.031 E0.05699
G1 X136.774 Y96.434 E0.05710
G1 X137.689 Y97.867 E0.05332
G1 X138.541 Y99.648 E0.06190
G1 X139.101 Y101.373 E0.05687
G1 X139.426 Y103.050 E0.05355
G1 X139.557 Y105.126 E0.06520
G1 X139.445 Y106.826 E0.05344
G1 X139.129 Y108.505 E0.05355
G1 X138.483 Y110.486 E0.06535
G1 X137.755 Y112.022 E0.05329
G1 X136.779 Y113.559 E0.05710
G1 X135.618 Y114.963 E0.05710
G1 X134.379 Y116.133 E0.05344
G1 X132.694 Y117.358 E0.06532
G1 X131.195 Y118.177 E0.05355
G1 X129.508 Y118.845 E0.05687
G1 X127.593 Y119.324 E0.06192
G1 X125.906 Y119.532 E0.05329
G1 X124.095 Y119.532 E0.05676
G1 X122.138 Y119.272 E0.06192
G1 X120.492 Y118.845 E0.05329
G1 X118.799 Y118.174 E0.05710
G1 X117.206 Y117.299 E0.05699
G1 X115.828 Y116.303 E0.05332
G1 X114.380 Y114.961 E0.06190
G1 X113.224 Y113.563 E0.05687
G1 X112.311 Y112.133 E0.05321
G1 X111.458 Y110.348 E0.06201
G1 X110.899 Y108.627 E0.05676
G1 X110.574 Y106.950 E0.05355
G1 X110.443 Y104.874 E0.06520
G1 X110.555 Y103.174 E0.05344
G1 X110.869 Y101.502 E0.05332
G1 X111.470 Y99.622 E0.06190
G1 X112.238 Y97.991 E0.05653
G1 X113.151 Y96.543 E0.05367
G1 X114.413 Y95.020 E0.06203
G1 F8640
G1 X115.726 Y93.776 E-0.41755
G1 X116.926 Y92.904 E-0.34245
G1 E-0.04000 F2100.00000
G1 Z0.800 F10800.000
G1 X117.790 Y98.230
G1 Z0.200
G1 E0.80000 F2100.00000
G1 F1200
G1 X118.696 Y97.380 E0.03894
G1 X119.701 Y96.650 E0.03894
G1 X120.789 Y96.051 E0.03894
G1 X121.944 Y95.594 E0.03894
G1 X123.147 Y95.285 E0.03894
G1 X124.379 Y95.129 E0.03894
G1 X125.621 Y95.129 E0.03894
G1 X126.853 Y95.285 E0.03894
G1 X128.056 Y95.594 E0.03894
G1 X129.211 Y96.051 E0.03894
G1 X130.299 Y96.650 E0.03894
G1 X131.304 Y97.380 E0.03894
G1 X132.210 Y98.230 E0.03894
G1 X133.001 Y99.187 E0.03894
G1 X133.667 Y100.235 E0.03894
G1 X134.196 Y101.359 E0.03894
G1 X134.579 Y102.540 E0.03894
G1 X134.812 Y103.760 E0.03894
G1 X134.890 Y105.000 E0.03894
G1 X134.812 Y106.240 E0.03894
G1 X134.579 Y107.460 E0.03894
G1 X134.196 Y108.641 E0.03894
G1 X133.667 Y109.765 E0.03894
G1 X133.001 Y110.813 E0.03894
G1 X132.210 Y111.770 E0.03894
G1 X131.304 Y112.620 E0.03894
G1 X130.299 Y113.350 E0.03894
G1 X129.211 Y113.949 E0.03894
G1 X128.056 Y114.406 E0.03894
G1 X126.853 Y114.715 E0.03894
G1 X125.621 Y114.871 E0.03894
G1 X124.379 Y114.871 E0.03894
G1 X123.147 Y114.715 E0.03894
G1 X121.944 Y114.406 E0.03894
G1 X120.789 Y113.949 E0.03894
G1 X119.701 Y113.350 E0.03894
G1 X118.696 Y112.620 E0.03894
G1 X117.790 Y111.770 E0.03894
G1 X116.999 Y110.813 E0.03894
G1 X116.333 Y109.765 E0.03894
G1 X115.804 Y108.641 E0.03894
G1 X115.421 Y107.460 E0.03894
G1 X115.188 Y106.240 E0.03894
G1 X115.110 Y105.000 E0.03894
G1 X115.188 Y103.760 E0.03894
G1 X115.421 Y102.540 E0.03894
G1 X115.804 Y101.359 E0.03894
G1 X116.333 Y100.235 E0.03894
G1 X116.999 Y99.187 E0.03894
G1 X117.752 Y98.276 E0.03706
G1 X118.043 Y98.516 F10800.000
G1 F1200
G1 X118.937 Y97.671 E0.03858
G1 X119.903 Y96.969 E0.03745
G1 X120.950 Y96.393 E0.03745
G1 X122.061 Y95.953 E0.03745
G1 X123.218 Y95.656 E0.03745
G1 X124.403 Y95.507 E0.03745
G1 X125.597 Y95.507 E0.03745
G1 X126.782 Y95.656 E0.03745
G1 X127.939 Y95.953 E0.03745
G1 X129.050 Y96.393 E0.03745
G1 X130.097 Y96.969 E0.03745
G1 X131.063 Y97.671 E0.03745
G1 X131.934 Y98.488 E0.03745
G1 X132.696 Y99.409 E0.03745
G1 X133.336 Y100.417 E0.03745
G1 X133.844 Y101.498 E0.03745
G1 X134.213 Y102.634 E0.03745
G1 X134.437 Y103.808 E0.03745
G1 X134.512 Y105.000 E0.03745
G1 X134.437 Y106.192 E0.03745
G1 X134.213 Y107.366 E0.03745
G1 X133.844 Y108.502 E0.03745
G1 X133.336 Y109.583 E0.03745
G1 X132.696 Y110.591 E0.03745
G1 X131.934 Y111.512 E0.03745
G1 X131.063 Y112.329 E0.03745
G1 X130.097 Y113.031 E0.03745
G1 X129.050 Y113.607 E0.03745
G1 X127.939 Y114.047 E0.03745
G1 X126.782 Y114.344 E0.03745
G1 X125.597 Y114.493 E0.03745
G1 X124.403 Y114.493 E0.03745
G1 X123.218 Y114.344 E0.03745
G1 X122.061 Y114.047 E0.03745
G1 X120.950 Y113.607 E0.03745
G1 X119.903 Y113.031 E0.03745
G1 X118.937 Y112.329 E0.03745
G1 X118.066 Y111.512 E0.03745
G1 X117.304 Y110.591 E0.03745
G1 X116.664 Y109.583 E0.03745
G1 X116.156 Y108.502 E0.03745
G1 X115.787 Y107.366 E0.03745
G1 X115.563 Y106.192 E0.03745
G1 X115.488 Y105.000 E0.03745
G1 X115.563 Y103.808 E0.03745
G1 X115.787 Y102.634 E0.03745
G1 X116.156 Y101.498 E0.03745
G1 X116.664 Y100.417 E0.03745
G1 X117.304 Y99.409 E0.03745
G1 X118.005 Y98.563 E0.03444
G1 X117.926 Y98.134 F10800.000
G1 F8640
G1 X118.937 Y97.671 E-0.29789
G1 X119.903 Y96.969 E-0.27583
G1 X120.610 Y96.580 E-0.18628
G1 E-0.04000 F2100.00000
G1 Z0.800 F10800.000
G1 X116.838 Y97.336
G1 Z0.200
G1 E0.80000 F2100.00000
G1 F1200
G1 X117.863 Y96.373 E0.04408
G1 X119.001 Y95.547 E0.04408
G1 X120.233 Y94.870 E0.04408
G1 X121.540 Y94.352 E0.04408
G1 X122.902 Y94.002 E0.04408
G1 X124.297 Y93.826 E0.04408
G1 X125.703 Y93.826 E0.04408
G1 X127.098 Y94.002 E0.04408
G1 X128.460 Y94.352 E0.04408
G1 X129.767 Y94.870 E0.04408
G1 X130.999 Y95.547 E0.04408
G1 X132.137 Y96.373 E0.04408
G1 X133.162 Y97.336 E0.04408
G1 X134.058 Y98.419 E0.04408
G1 X134.811 Y99.606 E0.04408
G1 X135.410 Y100.878 E0.04408
G1 X135.844 Y102.216 E0.04408
G1 X136.108 Y103.597 E0.04408
G1 X136.196 Y105.000 E0.04408
G1 X136.108 Y106.403 E0.04408
G1 X135.844 Y107.784 E0.04408
G1 X135.410 Y109.122 E0.04408
G1 X134.811 Y110.394 E0.04408
G1 X134.058 Y111.581 E0.04408
G1 X133.162 Y112.664 E0.04408
G1 X132.137 Y113.627 E0.04408
G1 X130.999 Y114.453 E0.04408
G1 X129.767 Y115.130 E0.04408
G1 X128.460 Y115.648 E0.04408
G1 X127.098 Y115.998 E0.04408
G1 X125.703 Y116.174 E0.04408
G1 X124.297 Y116.174 E0.04408
G1 X122.902 Y115.998 E0.04408
G1 X121.540 Y115.648 E0.04408
G1 X120.233 Y115.130 E0.04408
G1 X119.001 Y114.453 E0.04408
G1 X117.863 Y113.627 E0.04408
G1 X116.838 Y112.664 E0.04408
G1 X115.942 Y111.581 E0.04408
G1 X115.189 Y110.394 E0.04408
G1 X114.590 Y109.122 E0.04408
G1 X114.156 Y107.784 E0.04408
G1 X113.892 Y106.403 E0.04408
G1 X113.804 Y105.000 E0.04408
G1 X113.892 Y103.597 E0.04408
G1 X114.156 Y102.216 E0.04408
G1 X114.590 Y100.878 E0.04408
G1 X115.189 Y99.606 E0.04408
G1 X115.942 Y98.419 E0.04408
G1 X116.800 Y97.382 E0.04220
G1 X116.510 Y97.142 F10800.000
G1 F1200
G1 X117.623 Y96.082 E0.04818
G1 X118.798 Y95.228 E0.04557
G1 X120.072 Y94.528 E0.04557
G1 X121.423 Y93.993 E0.04557
G1 X122.831 Y93.631 E0.04557
G1 X124.273 Y93.449 E0.04557
G1 X125.727 Y93.449 E0.04557
G1 X126.873 Y93.594 E0.03621
G1 X127.169 Y93.631 E0.00936
G1 X128.577 Y93.993 E0.04557
G1 X129.928 Y94.528 E0.04557
G1 X131.202 Y95.228 E0.04557
G1 X132.377 Y96.082 E0.04557
G1 X133.437 Y97.077 E0.04557
G1 X134.363 Y98.197 E0.04557
G1 X135.142 Y99.424 E0.04557
G1 X135.761 Y100.739 E0.04557
G1 X136.210 Y102.122 E0.04557
G1 X136.483 Y103.549 E0.04557
G1 X136.574 Y105.000 E0.04557
G1 X136.483 Y106.451 E0.04557
G1 X136.210 Y107.878 E0.04557
G1 X135.761 Y109.261 E0.04557
G1 X135.142 Y110.576 E0.04557
G1 X134.363 Y111.803 E0.04557
G1 X133.437 Y112.923 E0.04557
G1 X132.377 Y113.918 E0.04557
G1 X131.202 Y114.772 E0.04557
G1 X129.928 Y115.472 E0.04557
G1 X128.577 Y116.007 E0.04557
G1 X127.169 Y116.369 E0.04557
G1 X125.727 Y116.551 E0.04557
G1 X124.273 Y116.551 E0.04557
G1 X122.831 Y116.369 E0.04557
G1 X121.423 Y116.007 E0.04557
G1 X120.072 Y115.472 E0.04557
G1 X118.798 Y114.772 E0.04557
G1 X117.623 Y113.918 E0.04557
G1 X116.563 Y112.923 E0.04557
G1 X115.637 Y111.803 E0.04557
G1 X114.858 Y110.576 E0.04557
G1 X114.239 Y109.261 E0.04557
G1 X113.790 Y107.878 E0.04557
G1 X113.517 Y106.451 E0.04557
G1 X113.426 Y105.000 E0.04557
G1 X113.517 Y103.549 E0.04557
G1 X113.790 Y102.122 E0.04557
G1 X114.239 Y100.739 E0.04557
G1 X114.858 Y99.424 E0.04557
G1 X115.637 Y98.197 E0.04557
G1 X116.471 Y97.188 E0.04107
G1 X116.900 Y97.231 F10800.000
G1 F8640
G1 X117.623 Y96.082 E-0.36855
G1 X118.798 Y95.228 E-0.33561
G1 X119.010 Y95.111 E-0.05584
G1 E-0.04000 F2100.00000
G1 Z0.800 F10800.000
G1 X121.317 Y101.541
G1 Z0.200
G1 E0.80000 F2100.00000
G1 F1200
G1 X121.779 Y101.107 E0.01990
G1 X122.292 Y100.734 E0.01990
G1 X122.849 Y100.428 E0.01990
G1 X123.439 Y100.194 E0.01990
G1 X124.053 Y100.036 E0.01990
G1 X124.683 Y99.957 E0.01990
G1 X125.317 Y99.957 E0.01990
G1 X125.947 Y100.036 E0.01990
G1 X126.561 Y100.194 E0.01990
G1 X127.151 Y100.428 E0.01990
G1 X127.708 Y100.734 E0.01990
G1 X128.221 Y101.107 E0.01990
G1 X128.683 Y101.541 E0.01990
G1 X129.088 Y102.030 E0.01990
G1 X129.428 Y102.566 E0.01990
G1 X129.698 Y103.140 E0.01990
G1 X129.894 Y103.743 E0.01990
G1 X130.013 Y104.367 E0.01990
G1 X130.053 Y105.000 E0.01990
G1 X130.013 Y105.633 E0.01990
G1 X129.894 Y106.257 E0.01990
G1 X129.698 Y106.860 E0.01990
G1 X129.428 Y107.434 E0.01990
G1 X129.088 Y107.970 E0.01990
G1 X128.683 Y108.459 E0.01990
G1 X128.221 Y108.893 E0.01990
G1 X127.708 Y109.266 E0.01990
G1 X127.151 Y109.572 E0.01990
G1 X126.561 Y109.806 E0.01990
G1 X125.947 Y109.964 E0.01990
G1 X125.317 Y110.043 E0.01990
G1 X124.683 Y110.043 E0.01990
G1 X124.053 Y109.964 E0.01990
G1 X123.439 Y109.806 E0.01990
G1 X122.849 Y109.572 E0.01990
G1 X122.292 Y109.266 E0.01990
G1 X121.779 Y108.893 E0.01990
G1 X121.317 Y108.459 E0.01990
G1 X120.912 Y107.970 E0.01990
G1 X120.572 Y107.434 E0.01990
G1 X120.302 Y106.860 E0.01990
G1 X120.106 Y106.257 E0.01990
G1 X119.987 Y105.633 E0.01990
G1 X119.947 Y105.000 E0.01990
G1 X119.987 Y104.367 E0.01990
G1 X120.106 Y103.743 E0.01990
G1 X120.302 Y103.140 E0.01990
G1 X120.572 Y102.566 E0.01990
G1 X120.912 Y102.030 E0.01990
G1 X121.278 Y101.587 E0.01802
G1 X120.988 Y101.347 F10800.000
G1 F1200
G1 X121.538 Y100.815 E0.02399
G1 X122.090 Y100.415 E0.02138
G1 X122.688 Y100.086 E0.02138
G1 X123.322 Y99.835 E0.02138
G1 X123.982 Y99.665 E0.02138
G1 X124.659 Y99.580 E0.02138
G1 X125.341 Y99.580 E0.02138
G1 X126.018 Y99.665 E0.02138
G1 X126.678 Y99.835 E0.02138
G1 X127.312 Y100.086 E0.02138
G1 X127.910 Y100.415 E0.02138
G1 X128.462 Y100.815 E0.02138
G1 X128.959 Y101.282 E0.02138
G1 X129.394 Y101.808 E0.02138
G1 X129.759 Y102.384 E0.02138
G1 X130.049 Y103.001 E0.02138
G1 X130.260 Y103.649 E0.02138
G1 X130.388 Y104.319 E0.02138
G1 X130.431 Y105.000 E0.02138
G1 X130.388 Y105.681 E0.02138
G1 X130.260 Y106.351 E0.02138
G1 X130.049 Y106.999 E0.02138
G1 X129.759 Y107.616 E0.02138
G1 X129.394 Y108.192 E0.02138
G1 X128.959 Y108.718 E0.02138
G1 X128.462 Y109.185 E0.02138
G1 X127.910 Y109.585 E0.02138
G1 X127.312 Y109.914 E0.02138
G1 X126.678 Y110.165 E0.02138
G1 X126.018 Y110.335 E0.02138
G1 X125.341 Y110.420 E0.02138
G1 X124.659 Y110.420 E0.02138
G1 X123.982 Y110.335 E0.02138
G1 X123.322 Y110.165 E0.02138
G1 X122.688 Y109.914 E0.02138
G1 X122.090 Y109.585 E0.02138
G1 X121.538 Y109.185 E0.02138
G1 X121.041 Y108.718 E0.02138
G1 X120.606 Y108.192 E0.02138
G1 X120.241 Y107.616 E0.02138
G1 X119.951 Y106.999 E0.02138
G1 X119.740 Y106.351 E0.02138
G1 X119.612 Y105.681 E0.02138
G1 X119.569 Y105.000 E0.02138
G1 X119.612 Y104.319 E0.02138
G1 X119.740 Y103.649 E0.02138
G1 X119.951 Y103.001 E0.02138
G1 X120.241 Y102.384 E0.02138
G1 X120.606 Y101.808 E0.02138
G1 X120.949 Y101.393 E0.01688
G1 X121.378 Y101.434 F10800.000
G1 F8640
G1 X121.538 Y100.815 E-0.19045
G1 X122.090 Y100.415 E-0.15748
G1 X122.688 Y100.086 E-0.15748
G1 X123.322 Y99.835 E-0.15748
G1 X123.729 Y99.730 E-0.09712
G1 E-0.04000 F2100.00000
G1 Z0.800 F10800.000
G1 X120.725 Y107.465
G1 Z0.200
G1 E0.80000 F2100.00000
G1 F1200
G1 X122.526 Y109.266 E0.08075
G1 F8640
G1 X120.725 Y107.465 E-0.58816
G1 E-0.21184 F2100.00000
G1 Z0.800 F10800.000
G1 X123.506 Y109.706
G1 Z0.200
G1 E0.80000 F2100.00000
G1 F1200
G1 X120.574 Y106.774 E0.13144
G1 X120.380 Y106.186 E0.01963
G1 X120.346 Y106.007 E0.00577
G1 X123.996 Y109.657 E0.16361
G1 X124.629 Y109.751 E0.02031
G1 X120.254 Y105.376 E0.19615
G1 X120.230 Y105.000 E0.01194
G1 X120.241 Y104.824 E0.00558
G1 X125.177 Y109.760 E0.22128
G1 X125.670 Y109.713 E0.01568
G1 X120.282 Y104.326 E0.24152
G1 X120.369 Y103.873 E0.01461
G1 X126.122 Y109.627 E0.25792
G1 X126.543 Y109.509 E0.01387
G1 X120.495 Y103.460 E0.27115
G1 X120.565 Y103.244 E0.00721
G1 X120.646 Y103.072 E0.00602
G1 X126.930 Y109.356 E0.28169
G1 X127.288 Y109.175 E0.01272
G1 X120.819 Y102.706 E0.29000
G1 X121.028 Y102.376 E0.01239
G1 X127.627 Y108.975 E0.29587
G1 X127.940 Y108.748 E0.01224
G1 X121.253 Y102.062 E0.29977
G1 X121.497 Y101.767 E0.01214
G1 X128.229 Y108.498 E0.30179
G1 X128.503 Y108.234 E0.01209
G1 X121.771 Y101.502 E0.30179
G1 X122.060 Y101.252 E0.01212
G1 X128.747 Y107.938 E0.29977
G1 X128.972 Y107.625 E0.01225
G1 X122.373 Y101.025 E0.29587
G1 X122.712 Y100.825 E0.01249
G1 X129.181 Y107.294 E0.29001
G1 X129.354 Y106.928 E0.01284
G1 X123.070 Y100.644 E0.28169
G1 X123.457 Y100.491 E0.01317
G1 X129.505 Y106.540 E0.27115
G1 X129.631 Y106.127 E0.01369
G1 X123.878 Y100.373 E0.25792
G1 X124.106 Y100.315 E0.00747
G1 X124.330 Y100.287 E0.00715
