; generated by PrusaSlicer 2.1.1+ on 2020-02-11 at 14:45:15 UTC

; 

; external perimeters extrusion width = 0.60mm
; perimeters extrusion width = 0.50mm
; infill extrusion width = 0.50mm
; solid infill extrusion width = 0.50mm
; top infill extrusion width = 0.45mm
; first layer extrusion width = 0.42mm

M73 P0 R33
M73 Q0 S33
M201 X1000 Y1000 Z1000 E5000 ; sets maximum accelerations, mm/sec^2
M203 X200 Y200 Z12 E120 ; sets maximum feedrates, mm/sec
M204 P1250 R1250 T1250 ; sets acceleration (P, T) and retract acceleration (R), mm/sec^2
M205 X8.00 Y8.00 Z0.40 E4.50 ; sets the jerk limits, mm/sec
M205 S0 T0 ; sets the minimum extruding and travel feed rate, mm/sec
M107
M862.3 P "MK3S" ; printer model check
M862.1 P0.4 ; nozzle diameter check
M115 U3.8.1 ; tell printer latest fw version
G90 ; use absolute coordinates
M83 ; extruder relative mode
M104 S215 ; set extruder temp
M140 S60 ; set bed temp
M190 S60 ; wait for bed temp
M109 S215 ; wait for extruder temp
G28 W ; home all without mesh bed level
G80 ; mesh bed leveling
G1 Y-3.0 F1000.0 ; go outside print area
G92 E0.0
G1 X60.0 E9.0 F1000.0 ; intro line
M73 Q0 S33
M73 P0 R33
G1 X100.0 E12.5 F1000.0 ; intro line
G92 E0.0
M221 S95
G21 ; set units to millimeters
G90 ; use absolute coordinates
M83 ; use relative distances for extrusion
M900 K30 ; Filament gcode
;BEFORE_LAYER_CHANGE
G92 E0.0
;0.2


G1 E-0.80000 F2100.00000
G1 Z0.600 F10800.000
;AFTER_LAYER_CHANGE
;0.2
G1 X115.672 Y96.019
G1 Z0.200
G1 E0.80000 F2100.00000
M204 S1000
G1 F1200
G1 X116.754 Y95.012 E0.04635
G1 X118.061 Y94.063 E0.05063
G1 X119.472 Y93.286 E0.05051
G1 X120.846 Y92.736 E0.04641
G1 X122.699 Y92.256 E0.06002
G1 X124.184 Y92.073 E0.04691
G1 X125.656 Y92.068 E0.04617
G1 X127.567 Y92.308 E0.06039
G1 X129.011 Y92.684 E0.04679
G1 X130.502 Y93.274 E0.05026
G1 X132.074 Y94.154 E0.05650
G1 X133.266 Y95.028 E0.04635
G1 X134.440 Y96.131 E0.05051
G1 X135.470 Y97.375 E0.05063
G1 X136.268 Y98.621 E0.04641
G1 X137.048 Y100.244 E0.05644
G1 X137.543 Y101.768 E0.05026
G1 X137.828 Y103.233 E0.04679
G1 X137.949 Y105.143 E0.06002
G1 X137.850 Y106.624 E0.04654
G1 X137.575 Y108.095 E0.04691
G1 X136.979 Y109.916 E0.06008
G1 X136.344 Y111.251 E0.04635
G1 X135.478 Y112.614 E0.05063
G1 X134.449 Y113.859 E0.05063
G1 X133.369 Y114.882 E0.04666
G1 X131.817 Y116.010 E0.06014
G1 X130.507 Y116.724 E0.04679
G1 X129.020 Y117.313 E0.05013
G1 X127.274 Y117.748 E0.05644
G1 X125.804 Y117.928 E0.04641
G1 X124.205 Y117.928 E0.05013
G1 X122.416 Y117.688 E0.05662
G1 X120.985 Y117.315 E0.04635
G1 X119.484 Y116.719 E0.05063
G1 X118.069 Y115.942 E0.05063
G1 X116.871 Y115.079 E0.04629
G1 X115.549 Y113.857 E0.05644
G1 X114.527 Y112.622 E0.05026
G1 X113.729 Y111.375 E0.04641
G1 X112.951 Y109.752 E0.05644
G1 X112.457 Y108.232 E0.05013
G1 X112.172 Y106.767 E0.04679
G1 X112.051 Y104.857 E0.06002
G1 X112.150 Y103.376 E0.04654
G1 X112.422 Y101.921 E0.04641
G1 X112.968 Y100.205 E0.05644
G1 X113.644 Y98.770 E0.04976
G1 X114.441 Y97.503 E0.04691
G1 X115.634 Y96.066 E0.05857
G1 X115.922 Y96.304 F10800.000
G1 F1200
G1 X116.991 Y95.305 E0.04589
G1 X118.263 Y94.381 E0.04929
G1 X119.637 Y93.625 E0.04917
G1 X120.985 Y93.087 E0.04551
G1 X122.757 Y92.629 E0.05739
G1 X124.208 Y92.449 E0.04585
G1 X125.656 Y92.445 E0.04539
G1 X127.476 Y92.673 E0.05750
G1 X128.894 Y93.043 E0.04597
G1 X130.342 Y93.616 E0.04883
G1 X131.852 Y94.459 E0.05422
G1 X133.023 Y95.316 E0.04548
G1 X134.166 Y96.390 E0.04917
G1 X135.168 Y97.601 E0.04929
G1 X135.950 Y98.823 E0.04551
G1 X136.697 Y100.382 E0.05420
G1 X137.179 Y101.867 E0.04894
G1 X137.458 Y103.302 E0.04585
G1 X137.572 Y105.126 E0.05728
G1 X137.476 Y106.577 E0.04562
G1 X137.206 Y108.015 E0.04585
G1 X136.638 Y109.756 E0.05742
G1 X136.016 Y111.066 E0.04548
G1 X135.173 Y112.393 E0.04929
G1 X134.174 Y113.602 E0.04917
G1 X133.111 Y114.606 E0.04585
G1 X131.630 Y115.682 E0.05739
G1 X130.347 Y116.382 E0.04585
G1 X128.899 Y116.956 E0.04883
G1 X127.225 Y117.374 E0.05408
G1 X125.781 Y117.551 E0.04562
G1 X124.224 Y117.552 E0.04883
G1 X122.509 Y117.323 E0.05422
G1 X121.106 Y116.957 E0.04548
G1 X119.648 Y116.380 E0.04917
G1 X118.270 Y115.623 E0.04929
G1 X117.093 Y114.774 E0.04551
G1 X115.827 Y113.602 E0.05408
G1 X114.832 Y112.399 E0.04894
G1 X114.050 Y111.177 E0.04551
G1 X113.303 Y109.618 E0.05420
G1 X112.821 Y108.133 E0.04894
G1 X112.542 Y106.698 E0.04585
G1 X112.428 Y104.874 E0.05728
G1 X112.524 Y103.423 E0.04562
G1 X112.792 Y101.996 E0.04551
G1 X113.316 Y100.349 E0.05420
G1 X113.977 Y98.947 E0.04860
G1 X114.757 Y97.710 E0.04585
G1 X115.883 Y96.351 E0.05535
G1 F8640
G1 X116.991 Y95.305 E-0.35168
G1 X118.263 Y94.381 E-0.36297
G1 X118.435 Y94.287 E-0.04536
G1 E-0.04000 F2100.00000
G1 Z0.800 F10800.000
G1 X118.066 Y98.488
G1 Z0.200
G1 E0.80000 F2100.00000
G1 F1200
G1 X118.937 Y97.671 E0.03745
G1 X119.903 Y96.969 E0.03745
G1 X120.950 Y96.393 E0.03745
G1 X122.061 Y95.953 E0.03745
G1 X123.218 Y95.656 E0.03745
G1 X124.403 Y95.507 E0.03745
G1 X125.597 Y95.507 E0.03745
G1 X126.782 Y95.656 E0.03745
G1 X127.939 Y95.953 E0.03745
G1 X129.050 Y96.393 E0.03745
G1 X130.097 Y96.969 E0.03745
G1 X131.063 Y97.671 E0.03745
G1 X131.934 Y98.488 E0.03745
G1 X132.696 Y99.409 E0.03745
G1 X133.336 Y100.417 E0.03745
G1 X133.844 Y101.498 E0.03745
G1 X134.213 Y102.634 E0.03745
G1 X134.437 Y103.808 E0.03745
G1 X134.512 Y105.000 E0.03745
G1 X134.437 Y106.192 E0.03745
G1 X134.213 Y107.366 E0.03745
G1 X133.844 Y108.502 E0.03745
G1 X133.336 Y109.583 E0.03745
G1 X132.696 Y110.591 E0.03745
G1 X131.934 Y111.512 E0.03745
G1 X131.063 Y112.329 E0.03745
G1 X130.097 Y113.031 E0.03745
G1 X129.050 Y113.607 E0.03745
G1 X127.939 Y114.047 E0.03745
G1 X126.782 Y114.344 E0.03745
G1 X125.597 Y114.493 E0.03745
G1 X124.403 Y114.493 E0.03745
G1 X123.218 Y114.344 E0.03745
G1 X122.061 Y114.047 E0.03745
G1 X120.950 Y113.607 E0.03745
G1 X119.903 Y113.031 E0.03745
G1 X118.937 Y112.329 E0.03745
G1 X118.066 Y111.512 E0.03745
G1 X117.304 Y110.591 E0.03745
G1 X116.664 Y109.583 E0.03745
G1 X116.156 Y108.502 E0.03745
G1 X115.787 Y107.366 E0.03745
G1 X115.563 Y106.192 E0.03745
G1 X115.488 Y105.000 E0.03745
G1 X115.563 Y103.808 E0.03745
G1 X115.787 Y102.634 E0.03745
G1 X116.156 Y101.498 E0.03745
G1 X116.664 Y100.417 E0.03745
G1 X117.304 Y99.409 E0.03745
G1 X118.028 Y98.535 E0.03557
G1 X117.950 Y98.106 F10800.000
G1 X117.940 Y98.462
G1 F1200
G1 X118.864 Y97.583 E0.03999
G1 X119.842 Y96.872 E0.03790
G1 X120.901 Y96.290 E0.03790
G1 X122.025 Y95.845 E0.03790
G1 X123.196 Y95.544 E0.03790
G1 X124.396 Y95.393 E0.03790
G1 X125.604 Y95.393 E0.03790
G1 X126.738 Y95.536 E0.03582
G1 X127.975 Y95.845 E0.04000
G1 X129.099 Y96.290 E0.03788
G1 X130.158 Y96.872 E0.03790
G1 X131.136 Y97.583 E0.03790
G1 X132.017 Y98.410 E0.03790
G1 X132.788 Y99.342 E0.03790
G1 X133.436 Y100.362 E0.03790
G1 X133.950 Y101.456 E0.03790
G1 X134.324 Y102.606 E0.03790
G1 X134.551 Y103.793 E0.03790
G1 X134.626 Y105.000 E0.03790
G1 X134.551 Y106.207 E0.03790
G1 X134.324 Y107.394 E0.03790
G1 X133.950 Y108.544 E0.03790
G1 X133.436 Y109.638 E0.03790
G1 X132.788 Y110.658 E0.03790
G1 X132.017 Y111.590 E0.03790
G1 X131.136 Y112.417 E0.03790
G1 X130.158 Y113.128 E0.03790
G1 X129.099 Y113.710 E0.03790
G1 X127.975 Y114.155 E0.03790
G1 X126.804 Y114.456 E0.03790
G1 X125.604 Y114.607 E0.03790
G1 X124.396 Y114.607 E0.03790
G1 X123.196 Y114.456 E0.03790
G1 X122.025 Y114.155 E0.03790
G1 X120.901 Y113.710 E0.03790
G1 X119.842 Y113.128 E0.03790
G1 X118.864 Y112.417 E0.03790
G1 X117.983 Y111.590 E0.03790
G1 X117.212 Y110.658 E0.03790
G1 X116.564 Y109.638 E0.03790
G1 X116.050 Y108.544 E0.03790
G1 X115.676 Y107.394 E0.03790
G1 X115.449 Y106.207 E0.03790
G1 X115.374 Y105.000 E0.03790
G1 X115.449 Y103.793 E0.03790
G1 X115.676 Y102.606 E0.03790
G1 X116.050 Y101.456 E0.03790
G1 X116.564 Y100.362 E0.03790
G1 X117.212 Y99.342 E0.03790
G1 X117.902 Y98.508 E0.03392
G1 X118.330 Y98.551 F10800.000
G1 F8640
G1 X118.864 Y97.583 E-0.30829
G1 X119.842 Y96.872 E-0.27914
G1 X120.497 Y96.512 E-0.17257
G1 E-0.04000 F2100.00000
G1 Z0.800 F10800.000
G1 X121.317 Y101.541
G1 Z0.200
G1 E0.80000 F2100.00000
G1 F1200
G1 X121.779 Y101.107 E0.01990
G1 X122.292 Y100.734 E0.01990
G1 X122.849 Y100.428 E0.01990
G1 X123.439 Y100.194 E0.01990
G1 X124.053 Y100.036 E0.01990
G1 X124.683 Y99.957 E0.01990
G1 X125.317 Y99.957 E0.01990
G1 X125.947 Y100.036 E0.01990
G1 X126.561 Y100.194 E0.01990
G1 X127.151 Y100.428 E0.01990
G1 X127.708 Y100.734 E0.01990
G1 X128.221 Y101.107 E0.01990
G1 X128.683 Y101.541 E0.01990
G1 X129.088 Y102.030 E0.01990
G1 X129.428 Y102.566 E0.01990
G1 X129.698 Y103.140 E0.01990
G1 X129.894 Y103.743 E0.01990
G1 X130.013 Y104.367 E0.01990
G1 X130.053 Y105.000 E0.01990
G1 X130.013 Y105.633 E0.01990
G1 X129.894 Y106.257 E0.01990
G1 X129.698 Y106.860 E0.01990
G1 X129.428 Y107.434 E0.01990
G1 X129.088 Y107.970 E0.01990
G1 X128.683 Y108.459 E0.01990
G1 X128.221 Y108.893 E0.01990
G1 X127.708 Y109.266 E0.01990
G1 X127.151 Y109.572 E0.01990
G1 X126.561 Y109.806 E0.01990
G1 X125.947 Y109.964 E0.01990
G1 X125.317 Y110.043 E0.01990
G1 X124.683 Y110.043 E0.01990
G1 X124.053 Y109.964 E0.01990
G1 X123.439 Y109.806 E0.01990
G1 X122.849 Y109.572 E0.01990
G1 X122.292 Y109.266 E0.01990
G1 X121.779 Y108.893 E0.01990
G1 X121.317 Y108.459 E0.01990
G1 X120.912 Y107.970 E0.01990
G1 X120.572 Y107.434 E0.01990
G1 X120.302 Y106.860 E0.01990
G1 X120.106 Y106.257 E0.01990
G1 X119.987 Y105.633 E0.01990
G1 X119.947 Y105.000 E0.01990
G1 X119.987 Y104.367 E0.01990
G1 X120.106 Y103.743 E0.01990
G1 X120.302 Y103.140 E0.01990
G1 X120.572 Y102.566 E0.01990
G1 X120.912 Y102.030 E0.01990
G1 X121.278 Y101.587 E0.01802
G1 X120.988 Y101.347 F10800.000
G1 F1200
G1 X121.538 Y100.815 E0.02399
G1 X122.090 Y100.415 E0.02138
G1 X122.688 Y100.086 E0.02138
G1 X123.322 Y99.835 E0.02138
G1 X123.982 Y99.665 E0.02138
G1 X124.659 Y99.580 E0.02138
G1 X125.341 Y99.580 E0.02138
G1 X126.018 Y99.665 E0.02138
G1 X126.678 Y99.835 E0.02138
G1 X127.312 Y100.086 E0.02138
G1 X127.910 Y100.415 E0.02138
G1 X128.462 Y100.815 E0.02138
G1 X128.959 Y101.282 E0.02138
G1 X129.394 Y101.808 E0.02138
G1 X129.759 Y102.384 E0.02138
G1 X130.049 Y103.001 E0.02138
G1 X130.260 Y103.649 E0.02138
G1 X130.388 Y104.319 E0.02138
G1 X130.431 Y105.000 E0.02138
G1 X130.388 Y105.681 E0.02138
G1 X130.260 Y106.351 E0.02138
G1 X130.049 Y106.999 E0.02138
G1 X129.759 Y107.616 E0.02138
G1 X129.394 Y108.192 E0.02138
G1 X128.959 Y108.718 E0.02138
G1 X128.462 Y109.185 E0.02138
G1 X127.910 Y109.585 E0.02138
G1 X127.312 Y109.914 E0.02138
G1 X126.678 Y110.165 E0.02138
G1 X126.018 Y110.335 E0.02138
G1 X125.341 Y110.420 E0.02138
G1 X124.659 Y110.420 E0.02138
G1 X123.982 Y110.335 E0.02138
G1 X123.322 Y110.165 E0.02138
G1 X122.688 Y109.914 E0.02138
G1 X122.090 Y109.585 E0.02138
G1 X121.538 Y109.185 E0.02138
G1 X121.041 Y108.718 E0.02138
G1 X120.606 Y108.192 E0.02138
G1 X120.241 Y107.616 E0.02138
G1 X119.951 Y106.999 E0.02138
G1 X119.740 Y106.351 E0.02138
G1 X119.612 Y105.681 E0.02138
G1 X119.569 Y105.000 E0.02138
G1 X119.612 Y104.319 E0.02138
G1 X119.740 Y103.649 E0.02138
G1 X119.951 Y103.001 E0.02138
G1 X120.241 Y102.384 E0.02138
G1 X120.606 Y101.808 E0.02138
G1 X120.949 Y101.393 E0.01688
G1 X121.378 Y101.434 F10800.000
G1 F8640
G1 X121.538 Y100.815 E-0.19045
G1 X122.090 Y100.415 E-0.15748
G1 X122.688 Y100.086 E-0.15748
G1 X123.322 Y99.835 E-0.15748
G1 X123.729 Y99.730 E-0.09712
G1 E-0.04000 F2100.00000
G1 Z0.800 F10800.000
G1 X120.725 Y107.465
G1 Z0.200
G1 E0.80000 F2100.00000
G1 F1200
G1 X122.526 Y109.266 E0.08075
G1 F8640
G1 X120.725 Y107.465 E-0.58816
G1 E-0.21184 F2100.00000
G1 Z0.800 F10800.000
G1 X123.506 Y109.706
G1 Z0.200
G1 E0.80000 F2100.00000
G1 F1200
G1 X120.574 Y106.774 E0.13144
G1 X120.380 Y106.186 E0.01963
G1 X120.346 Y106.007 E0.00577
G1 X123.996 Y109.657 E0.16361
G1 X124.629 Y109.751 E0.02031
G1 X120.254 Y105.376 E0.19615
G1 X120.230 Y105.000 E0.01194
G1 X120.241 Y104.824 E0.00558
G1 X125.177 Y109.760 E0.22128
G1 X125.670 Y109.713 E0.01568
G1 X120.282 Y104.326 E0.24152
G1 X120.369 Y103.873 E0.01461
G1 X126.122 Y109.627 E0.25792
G1 X126.543 Y109.509 E0.01387
G1 X120.495 Y103.460 E0.27115
G1 X120.565 Y103.244 E0.00721
G1 X120.646 Y103.072 E0.00602
G1 X126.930 Y109.356 E0.28169
G1 X127.288 Y109.175 E0.01272
G1 X120.819 Y102.706 E0.29000
G1 X121.028 Y102.376 E0.01239
G1 X127.627 Y108.975 E0.29587
G1 X127.940 Y108.748 E0.01224
G1 X121.253 Y102.062 E0.29977
G1 X121.497 Y101.767 E0.01214
G1 X128.229 Y108.498 E0.30179
G1 X128.503 Y108.234 E0.01209
G1 X121.771 Y101.502 E0.30179
G1 X122.060 Y101.252 E0.01212
G1 X128.747 Y107.938 E0.29977
G1 X128.972 Y107.625 E0.01225
G1 X122.373 Y101.025 E0.29587
G1 X122.712 Y100.825 E0.01249
G1 X129.181 Y107.294 E0.29001
G1 X129.354 Y106.928 E0.01284
G1 X123.070 Y100.644 E0.28169
G1 X123.457 Y100.491 E0.01317
G1 X129.505 Y106.540 E0.27115
G1 X129.631 Y106.127 E0.01369
G1 X123.878 Y100.373 E0.25792
G1 X124.106 Y100.315 E0.00747
G1 X124.330 Y100.287 E0.00715
G1 X129.718 Y105.674 E0.24152
G1 X129.759 Y105.176 E0.01584
G1 X124.823 Y100.240 E0.22129
G1 X125.371 Y100.249 E0.01738
G1 X129.746 Y104.624 E0.19615
G1 X129.732 Y104.402 E0.00705
G1 X129.654 Y103.993 E0.01321
G1 X126.004 Y100.343 E0.16362
G1 X126.474 Y100.464 E0.01537
G1 X126.789 Y100.588 E0.01073
G1 X129.694 Y103.494 E0.13027
G1 F8640
G1 X127.367 Y101.167 E-0.76000
G1 E-0.04000 F2100.00000
G1 Z0.800 F10800.000
G1 X129.275 Y102.535
G1 Z0.200
G1 E0.80000 F2100.00000
G1 F1200
G1 X127.473 Y100.734 E0.08077
M106 S255
;BEFORE_LAYER_CHANGE
G92 E0.0
;0.5


G1 F8640
G1 X129.275 Y102.535 E-0.58831
G1 E-0.21169 F2100.00000
G1 Z0.800 F10800.000
;AFTER_LAYER_CHANGE
;0.5
G1 X137.048 Y100.244
G1 Z0.500
G1 E0.80000 F2100.00000
G1 F1357
G1 X137.543 Y101.768 E0.07110
G1 X137.828 Y103.233 E0.06618
G1 X137.949 Y105.143 E0.08491
G1 X137.850 Y106.624 E0.06583
G1 X137.575 Y108.095 E0.06636
G1 X136.979 Y109.916 E0.08499
G1 X136.344 Y111.251 E0.06557
G1 X135.478 Y112.614 E0.07162
G1 X134.449 Y113.859 E0.07162
G1 X133.369 Y114.882 E0.06601
G1 X131.817 Y116.010 E0.08508
G1 X130.507 Y116.724 E0.06618
G1 X129.020 Y117.313 E0.07092
G1 X127.274 Y117.748 E0.07984
G1 X125.804 Y117.928 E0.06566
G1 X124.205 Y117.928 E0.07092
G1 X122.416 Y117.688 E0.08010
G1 X120.985 Y117.315 E0.06557
G1 X119.484 Y116.719 E0.07162
G1 X118.069 Y115.942 E0.07162
G1 X116.871 Y115.079 E0.06548
G1 X115.549 Y113.857 E0.07984
G1 X114.527 Y112.622 E0.07110
G1 X113.729 Y111.375 E0.06566
G1 X112.951 Y109.752 E0.07984
G1 X112.457 Y108.232 E0.07092
G1 X112.172 Y106.767 E0.06618
G1 X112.051 Y104.857 E0.08491
G1 X112.150 Y103.376 E0.06583
G1 X112.422 Y101.921 E0.06566
G1 X112.968 Y100.205 E0.07984
G1 X113.644 Y98.770 E0.07040
G1 X114.441 Y97.503 E0.06636
G1 X115.672 Y96.019 E0.08551
G1 X116.754 Y95.012 E0.06557
G1 X118.061 Y94.063 E0.07162
G1 X119.472 Y93.286 E0.07145
G1 X120.846 Y92.736 E0.06566
G1 X122.699 Y92.256 E0.08491
G1 X124.184 Y92.073 E0.06636
G1 X125.656 Y92.068 E0.06531
G1 X127.567 Y92.308 E0.08543
G1 X129.011 Y92.684 E0.06618
G1 X130.502 Y93.274 E0.07110
G1 X132.074 Y94.154 E0.07992
G1 X133.266 Y95.028 E0.06557
G1 X134.440 Y96.131 E0.07145
G1 X135.470 Y97.375 E0.07162
G1 X136.268 Y98.621 E0.06566
G1 X137.022 Y100.190 E0.07718
G1 F8640
G1 X137.543 Y101.768 E-0.38385
G1 X137.828 Y103.233 E-0.34454
G1 X137.837 Y103.370 E-0.03161
G1 E-0.04000 F2100.00000
G1 Z1.100 F10800.000
G1 X131.504 Y102.425
G1 Z0.500
G1 E0.80000 F2100.00000
M204 S800
G1 F1357
G1 X131.775 Y103.260 E0.04773
G1 X131.940 Y104.123 E0.04773
G1 X131.995 Y105.000 E0.04773
G1 X131.940 Y105.877 E0.04773
G1 X131.775 Y106.740 E0.04773
G1 X131.504 Y107.575 E0.04773
G1 X131.130 Y108.370 E0.04773
G1 X130.659 Y109.112 E0.04773
G1 X130.099 Y109.789 E0.04773
G1 X129.459 Y110.390 E0.04773
G1 X128.748 Y110.906 E0.04773
G1 X127.978 Y111.329 E0.04773
G1 X127.162 Y111.653 E0.04773
G1 X126.311 Y111.871 E0.04773
G1 X125.439 Y111.981 E0.04773
G1 X124.561 Y111.981 E0.04773
G1 X123.689 Y111.871 E0.04773
G1 X122.838 Y111.653 E0.04773
G1 X122.022 Y111.329 E0.04773
G1 X121.252 Y110.906 E0.04773
G1 X120.541 Y110.390 E0.04773
G1 X119.901 Y109.789 E0.04773
G1 X119.341 Y109.112 E0.04773
G1 X118.870 Y108.370 E0.04773
G1 X118.496 Y107.575 E0.04773
G1 X118.225 Y106.740 E0.04773
